;FLAVOR:Marlin
;TIME:2034
;Filament used: 1.30249m
;Layer height: 0.2
;MINX:96.5
;MINY:96.5
;MINZ:0.2
;MAXX:138.5
;MAXY:138.5
;MAXZ:20
;TARGET_MACHINE.NAME:Creality Ender-3
;Generated with Cura_SteamEngine 5.6.0
M140 S50
M105
M190 S50
M104 S200
M105
M109 S200
M82 ;absolute extrusion mode
; Ender 3 Custom Start G-code
G92 E0 ; Reset Extruder
G28 ; Home all axes
G1 Z2.0 F3000 ; Move Z Axis up little to prevent scratching of Heat Bed
G1 X0.1 Y20 Z0.3 F5000.0 ; Move to start position
G1 X0.1 Y200.0 Z0.3 F1500.0 E15 ; Draw the first line
G1 X0.4 Y200.0 Z0.3 F5000.0 ; Move to side a little
G1 X0.4 Y20 Z0.3 F1500.0 E30 ; Draw the second line
G92 E0 ; Reset Extruder
G1 Z2.0 F3000 ; Move Z Axis up little to prevent scratching of Heat Bed
G1 X5 Y20 Z0.3 F5000.0 ; Move over to prevent blob squish
G92 E0
G92 E0
G1 F2700 E-5
;LAYER_COUNT:100
;LAYER:0
M107
G0 F6000 X99.956 Y99.513 Z0.2
;TYPE:SKIRT
G1 F2700 E0
G1 F1200 X100.692 Y98.876 E0.03237
G1 X101.424 Y98.346 E0.06243
G1 X102.321 Y97.811 E0.09717
G1 X103.199 Y97.39 E0.12956
G1 X104.112 Y97.048 E0.16198
G1 X105.049 Y96.789 E0.19432
G1 X106.016 Y96.611 E0.22702
G1 X107.155 Y96.515 E0.26504
G1 X107.812 Y96.5 E0.2869
G1 X126.804 Y96.5 E0.91857
G1 X127.684 Y96.513 E0.94784
G1 X128.656 Y96.572 E0.98023
G1 X129.619 Y96.718 E1.01263
G1 X130.566 Y96.949 E1.04505
G1 X131.454 Y97.249 E1.07622
G1 X132.346 Y97.639 E1.1086
G1 X133.229 Y98.126 E1.14214
G1 X133.98 Y98.628 E1.17219
G1 X134.795 Y99.286 E1.20703
G1 X135.493 Y99.964 E1.23939
G1 X136.129 Y100.701 E1.27177
G1 X136.699 Y101.491 E1.30417
G1 X137.161 Y102.267 E1.33421
G1 X137.615 Y103.209 E1.36899
G1 X137.944 Y104.087 E1.40017
G1 X138.213 Y105.059 E1.43372
G1 X138.39 Y106.025 E1.46638
G1 X138.485 Y107.155 E1.5041
G1 X138.5 Y107.83 E1.52655
G1 X138.499 Y126.9 E2.16082
G1 X138.488 Y127.663 E2.18621
G1 X138.431 Y128.636 E2.21862
G1 X138.286 Y129.599 E2.25101
G1 X138.057 Y130.545 E2.28339
G1 X137.746 Y131.469 E2.31581
G1 X137.354 Y132.36 E2.34819
G1 X136.886 Y133.212 E2.38052
G1 X136.364 Y133.993 E2.41176
G1 X135.731 Y134.778 E2.4453
G1 X135.106 Y135.429 E2.47532
G1 X134.317 Y136.117 E2.51014
G1 X133.557 Y136.667 E2.54134
G1 X132.69 Y137.184 E2.57491
G1 X131.812 Y137.606 E2.60732
G1 X130.901 Y137.948 E2.63968
G1 X129.962 Y138.209 E2.6721
G1 X128.996 Y138.387 E2.70477
G1 X127.845 Y138.485 E2.74319
G1 X127.17 Y138.5 E2.76564
G1 X114.997 Y138.499 E3.17052
G1 X112.927 Y138.467 E3.23937
G1 X110.106 Y138.466 E3.3332
G1 X108.12 Y138.496 E3.39926
G1 X107.285 Y138.485 E3.42704
G1 X106.311 Y138.423 E3.4595
G1 X105.35 Y138.275 E3.49184
G1 X104.404 Y138.042 E3.52424
G1 X103.548 Y137.751 E3.55431
G1 X102.592 Y137.329 E3.58907
G1 X101.742 Y136.855 E3.62144
G1 X100.937 Y136.309 E3.65379
G1 X100.208 Y135.717 E3.68503
G1 X99.485 Y135.012 E3.71861
G1 X98.851 Y134.274 E3.75097
G1 X98.323 Y133.541 E3.78102
G1 X97.791 Y132.641 E3.81579
G1 X97.373 Y131.761 E3.8482
G1 X97.035 Y130.849 E3.88055
G1 X96.778 Y129.908 E3.91299
G1 X96.606 Y128.942 E3.94562
G1 X96.513 Y127.783 E3.9843
G1 X96.5 Y127.158 E4.00509
G1 X96.501 Y108.025 E4.64146
G1 X96.512 Y107.325 E4.66474
G1 X96.57 Y106.352 E4.69716
G1 X96.716 Y105.389 E4.72956
G1 X96.946 Y104.443 E4.76194
G1 X97.259 Y103.52 E4.79435
G1 X97.651 Y102.63 E4.8267
G1 X98.121 Y101.777 E4.85909
G1 X98.664 Y100.969 E4.89147
G1 X99.231 Y100.265 E4.92153
G1 X99.956 Y99.513 E4.95628
G0 F6000 X100.218 Y99.815
G1 F1200 X100.927 Y99.2 E4.98749
G1 X101.659 Y98.67 E5.01755
G1 X102.495 Y98.171 E5.04993
G1 X103.34 Y97.764 E5.08113
G1 X104.219 Y97.433 E5.11237
G1 X105.122 Y97.182 E5.14354
G1 X106.05 Y97.01 E5.17493
G1 X107.189 Y96.914 E5.21295
G1 X107.821 Y96.9 E5.23398
G1 X126.798 Y96.9 E5.86515
G1 X127.66 Y96.912 E5.89383
G1 X128.597 Y96.968 E5.92505
G1 X129.525 Y97.107 E5.95626
G1 X130.438 Y97.328 E5.9875
G1 X131.294 Y97.616 E6.01754
G1 X132.186 Y98.006 E6.04992
G1 X133.007 Y98.459 E6.08111
G1 X133.758 Y98.961 E6.11115
G1 X134.517 Y99.573 E6.14358
G1 X135.191 Y100.226 E6.17479
G1 X135.805 Y100.935 E6.20599
G1 X136.355 Y101.696 E6.23722
G1 X136.817 Y102.472 E6.26725
G1 X137.24 Y103.349 E6.29964
G1 X137.569 Y104.227 E6.33082
G1 X137.82 Y105.132 E6.36206
G1 X137.991 Y106.059 E6.39341
G1 X138.086 Y107.189 E6.43113
G1 X138.1 Y107.83 E6.45245
G1 X138.099 Y126.895 E7.08656
G1 X138.089 Y127.64 E7.11134
G1 X138.035 Y128.577 E7.14256
G1 X137.897 Y129.506 E7.17379
G1 X137.678 Y130.418 E7.20499
G1 X137.38 Y131.308 E7.23621
G1 X137.003 Y132.168 E7.26744
G1 X136.553 Y132.99 E7.29861
G1 X136.031 Y133.771 E7.32985
G1 X135.442 Y134.501 E7.36105
G1 X134.817 Y135.152 E7.39106
G1 X134.082 Y135.793 E7.4235
G1 X133.322 Y136.343 E7.4547
G1 X132.516 Y136.824 E7.48592
G1 X131.671 Y137.232 E7.51713
G1 X130.793 Y137.563 E7.54834
G1 X129.889 Y137.816 E7.57956
G1 X128.962 Y137.988 E7.61092
G1 X127.811 Y138.086 E7.64934
G1 X127.17 Y138.1 E7.67067
G1 X115.003 Y138.099 E8.07534
G1 X112.933 Y138.067 E8.1442
G1 X110.1 Y138.066 E8.23843
G1 X108.125 Y138.096 E8.30412
G1 X107.31 Y138.086 E8.33123
G1 X106.372 Y138.028 E8.36249
G1 X105.445 Y137.886 E8.39368
G1 X104.533 Y137.663 E8.42491
G1 X103.677 Y137.372 E8.45498
G1 X102.786 Y136.979 E8.48737
G1 X101.966 Y136.524 E8.51856
G1 X101.189 Y135.998 E8.54977
G1 X100.46 Y135.406 E8.581
G1 X99.788 Y134.751 E8.61221
G1 X99.176 Y134.04 E8.64341
G1 X98.648 Y133.307 E8.67346
G1 X98.152 Y132.469 E8.70585
G1 X97.748 Y131.622 E8.73706
G1 X97.421 Y130.743 E8.76825
G1 X97.172 Y129.837 E8.7995
G1 X97.005 Y128.91 E8.83083
G1 X96.913 Y127.775 E8.86871
G1 X96.9 Y127.158 E8.88923
G1 X96.901 Y108.031 E9.5254
G1 X96.911 Y107.348 E9.54812
G1 X96.966 Y106.411 E9.57934
G1 X97.105 Y105.483 E9.61055
G1 X97.325 Y104.571 E9.64175
G1 X97.625 Y103.681 E9.67299
G1 X98.002 Y102.822 E9.70419
G1 X98.453 Y102 E9.73537
G1 X98.976 Y101.22 E9.76661
G1 X99.543 Y100.516 E9.79667
G1 X100.218 Y99.815 E9.82904
G0 F6000 X100.481 Y100.117
G1 F1200 X101.162 Y99.524 E9.85907
G1 X101.894 Y98.994 E9.88913
G1 X102.669 Y98.531 E9.91916
G1 X103.482 Y98.138 E9.94919
G1 X104.327 Y97.818 E9.97925
G1 X105.196 Y97.575 E10.00926
G1 X106.084 Y97.409 E10.0393
G1 X107.223 Y97.313 E10.07732
G1 X107.83 Y97.3 E10.09752
G1 X126.793 Y97.3 E10.72823
G1 X127.637 Y97.311 E10.7563
G1 X128.539 Y97.364 E10.78635
G1 X129.432 Y97.496 E10.81638
G1 X130.31 Y97.707 E10.84641
G1 X131.166 Y97.995 E10.87645
G1 X131.993 Y98.357 E10.90648
G1 X132.785 Y98.792 E10.93653
G1 X133.536 Y99.294 E10.96658
G1 X134.239 Y99.861 E10.99661
G1 X134.889 Y100.488 E11.02665
G1 X135.481 Y101.17 E11.05669
G1 X136.011 Y101.901 E11.08672
G1 X136.473 Y102.677 E11.11676
G1 X136.866 Y103.49 E11.14679
G1 X137.184 Y104.335 E11.17682
G1 X137.427 Y105.205 E11.20687
G1 X137.592 Y106.093 E11.23691
G1 X137.687 Y107.223 E11.27462
G1 X137.7 Y107.83 E11.29482
G1 X137.699 Y126.89 E11.92875
G1 X137.69 Y127.617 E11.95294
G1 X137.639 Y128.519 E11.98298
G1 X137.508 Y129.413 E12.01304
G1 X137.299 Y130.291 E12.04306
G1 X137.013 Y131.148 E12.0731
G1 X136.652 Y131.976 E12.10315
G1 X136.22 Y132.768 E12.13315
G1 X135.719 Y133.52 E12.16321
G1 X135.153 Y134.224 E12.19325
G1 X134.528 Y134.875 E12.22327
G1 X133.847 Y135.469 E12.25332
G1 X133.116 Y136 E12.28337
G1 X132.342 Y136.464 E12.31339
G1 X131.529 Y136.858 E12.34344
G1 X130.685 Y137.178 E12.37346
G1 X129.815 Y137.423 E12.40352
G1 X128.928 Y137.589 E12.43353
G1 X127.777 Y137.687 E12.47196
G1 X127.17 Y137.7 E12.49215
G1 X115.009 Y137.699 E12.89663
G1 X112.939 Y137.667 E12.96548
G1 X110.094 Y137.666 E13.06011
G1 X108.13 Y137.696 E13.12544
G1 X107.334 Y137.687 E13.15191
G1 X106.432 Y137.632 E13.18197
G1 X105.539 Y137.497 E13.21201
G1 X104.662 Y137.284 E13.24203
G1 X103.806 Y136.993 E13.2721
G1 X102.98 Y136.629 E13.30212
G1 X102.19 Y136.192 E13.33215
G1 X101.441 Y135.687 E13.36219
G1 X100.739 Y135.119 E13.39223
G1 X100.091 Y134.49 E13.42226
G1 X99.501 Y133.806 E13.45231
G1 X98.973 Y133.073 E13.48235
G1 X98.513 Y132.296 E13.51239
G1 X98.123 Y131.482 E13.54241
G1 X97.807 Y130.636 E13.57244
G1 X97.566 Y129.765 E13.6025
G1 X97.404 Y128.877 E13.63252
G1 X97.313 Y127.766 E13.6696
G1 X97.3 Y127.158 E13.68983
G1 X97.301 Y108.036 E14.32583
G1 X97.31 Y107.371 E14.34795
G1 X97.362 Y106.469 E14.378
G1 X97.494 Y105.576 E14.40802
G1 X97.704 Y104.698 E14.43805
G1 X97.991 Y103.841 E14.46811
G1 X98.353 Y103.014 E14.49813
G1 X98.786 Y102.222 E14.52816
G1 X99.288 Y101.471 E14.5582
G1 X99.855 Y100.767 E14.58827
G1 X100.481 Y100.117 E14.61828
G1 F2700 E9.61828
;MESH:Mighty Wolt.stl
G0 F6000 X107.914 Y106.835
G0 X108.233 Y120.747
;TYPE:WALL-INNER
G1 F2700 E14.61828
G1 F781.8 X108.186 Y121.425 E14.65298
G1 F923.1 X108.139 Y122.104 E14.68241
G1 F1129.4 X108.091 Y122.783 E14.70646
G0 F6000 X108.639 Y119.944
G0 X109.324 Y117.436
G0 X110.245 Y115.72
G0 X111.5 Y114.994
G0 X112.755 Y115.72
G0 X113.676 Y117.436
G0 X114.364 Y119.958
G0 X114.486 Y120.836
G0 X115.207 Y126.636
G0 X115.086 Y126.899
G1 F1200 X126.9 Y126.9 E15.0994
G1 X126.9 Y108.1 E15.72469
G1 X108.101 Y108.101 E16.34995
G1 F1218.3 X108.095 Y119.92 E16.73715
G1 F1286.9 X108.082 Y120.349 E16.75046
G1 F941.2 X108.233 Y120.747 E16.76851
G1 X108.438 Y120.374 E16.78656
G1 F1283.4 X108.497 Y119.872 E16.80228
G1 F1221.4 X109.174 Y117.375 E16.88682
G1 F1209.1 X110.043 Y115.752 E16.9476
G1 F1200 X110.271 Y115.517 E16.95849
G1 X111.198 Y114.978 E16.99415
G1 X111.499 Y114.897 E17.00452
G1 X111.742 Y114.943 E17.01275
G1 X112.786 Y115.55 E17.05291
G1 X112.917 Y115.688 E17.05924
G1 X113.825 Y117.374 E17.12293
G1 X114.527 Y119.96 E17.21206
G1 X114.957 Y123.068 E17.31641
G1 X115.102 Y126.474 E17.4298
G1 X115.086 Y126.899 E17.44395
G0 F6000 X114.668 Y127.299
;TYPE:WALL-OUTER
G1 F1200 X127.3 Y127.3 E17.86409
G1 X127.3 Y107.7 E18.51599
G1 X107.701 Y107.701 E19.16785
G1 X107.701 Y122.783 E19.66948
G1 F991.7 X107.785 Y123.182 E19.68589
G1 F872.7 X107.768 Y124.852 E19.76227
G1 F930.2 X107.75 Y126.522 E19.83392
G1 F952.4 X107.755 Y127.245 E19.86422
G1 F941.2 X108.276 Y127.245 E19.88632
G1 F950.5 X108.249 Y126.5 E19.91762
G1 F975.6 X108.355 Y123.155 E20.05453
G1 F1086 X108.476 Y122.837 E20.06704
G1 F1200 X108.873 Y120.001 E20.16228
G1 X109.558 Y117.507 E20.24831
G1 X110.396 Y115.941 E20.30738
G1 X110.472 Y115.863 E20.311
G1 X111.438 Y115.301 E20.34817
G1 X111.57 Y115.309 E20.35257
G1 X112.58 Y115.895 E20.39141
G1 X113.442 Y117.507 E20.45221
G1 X114.131 Y120.015 E20.53872
G1 X114.556 Y123.066 E20.64117
G1 X114.702 Y126.509 E20.75579
G1 X114.668 Y127.299 E20.78209
G0 F6000 X114.95 Y127.031
G0 X115.461 Y126.799
G0 X115.462 Y126.539
;TYPE:SKIN
G1 F1200 X115.317 Y123.03 E20.8989
G1 X114.878 Y119.867 E21.00511
G1 X114.162 Y117.263 E21.09493
G1 X113.277 Y115.587 E21.15797
G1 X113.007 Y115.261 E21.17205
G1 X111.88 Y114.606 E21.21541
G1 X111.483 Y114.535 E21.22882
G1 X111.04 Y114.652 E21.24406
G1 X110.068 Y115.219 E21.28149
G1 X109.736 Y115.562 E21.29736
G1 X108.831 Y117.264 E21.36148
G1 X108.457 Y118.648 E21.40916
G1 X108.461 Y108.461 E21.74798
G1 X126.54 Y108.461 E22.34929
G1 X126.54 Y126.539 E22.95057
G1 X115.462 Y126.539 E23.31902
G0 F6000 X115.461 Y126.799
G0 X114.364 Y119.958
G0 X113.676 Y117.436
G0 X112.755 Y115.72
G0 X111.5 Y114.994
G0 X110.245 Y115.72
G0 X108.898 Y117.743
G0 X108.288 Y119.915
G0 X108.201 Y116.78
G0 X108.861 Y116.78
G1 F1200 X108.656 Y116.576 E23.32864
G0 F6000 X109.057 Y116.411
G1 F1200 X108.656 Y116.01 E23.34751
G0 F6000 X108.657 Y115.445
G1 F1200 X109.254 Y116.042 E23.37559
G0 F6000 X109.45 Y115.673
G1 F1200 X108.657 Y114.88 E23.41289
G0 F6000 X108.657 Y114.314
G1 F1200 X109.677 Y115.334 E23.46086
G0 F6000 X109.958 Y115.049
G1 F1200 X108.658 Y113.749 E23.52201
G0 F6000 X108.658 Y113.183
G1 F1200 X110.315 Y114.841 E23.59998
G0 F6000 X110.673 Y114.633
G1 F1200 X108.658 Y112.618 E23.69476
G0 F6000 X108.658 Y112.053
G1 F1200 X111.048 Y114.442 E23.80715
G0 F6000 X111.5 Y114.328
G1 F1200 X108.658 Y111.487 E23.94081
G0 F6000 X108.658 Y110.921
G1 F1200 X112.429 Y114.692 E24.11818
G0 F6000 X112.197 Y115.09
G0 X113.299 Y116.182
G0 X113.705 Y115.968
G1 F1200 X124.076 Y126.338 E24.60598
G0 F6000 X124.641 Y126.338
G1 F1200 X108.659 Y110.356 E25.35772
G0 F6000 X108.659 Y109.791
G1 F1200 X125.207 Y126.338 E26.13607
G0 F6000 X125.773 Y126.338
G1 F1200 X108.659 Y109.225 E26.94103
G0 F6000 X108.66 Y108.66
G1 F1200 X126.339 Y126.339 E27.7726
G0 F6000 X126.339 Y125.773
G1 F1200 X109.226 Y108.661 E28.57752
G0 F6000 X109.792 Y108.661
G1 F1200 X126.339 Y125.208 E29.35584
G0 F6000 X126.339 Y124.642
G1 F1200 X110.358 Y108.661 E30.10754
G0 F6000 X110.923 Y108.661
G1 F1200 X126.339 Y124.076 E30.83263
G0 F6000 X126.339 Y123.511
G1 F1200 X111.489 Y108.661 E31.53113
G0 F6000 X112.055 Y108.661
G1 F1200 X126.339 Y122.945 E32.20301
G0 F6000 X126.339 Y122.379
G1 F1200 X112.62 Y108.661 E32.84828
G0 F6000 X113.186 Y108.661
G1 F1200 X126.339 Y121.813 E33.46694
G0 F6000 X126.339 Y121.248
G1 F1200 X113.752 Y108.661 E34.05899
G0 F6000 X114.317 Y108.661
G1 F1200 X126.339 Y120.682 E34.62445
G0 F6000 X126.339 Y120.116
G1 F1200 X114.883 Y108.661 E35.16328
G0 F6000 X115.449 Y108.661
G1 F1200 X126.339 Y119.551 E35.67551
G0 F6000 X126.339 Y118.985
G1 F1200 X116.015 Y108.661 E36.16112
G0 F6000 X116.58 Y108.661
G1 F1200 X126.339 Y118.419 E36.62013
G0 F6000 X126.339 Y117.854
G1 F1200 X117.146 Y108.661 E37.05254
G0 F6000 X117.712 Y108.661
G1 F1200 X126.339 Y117.288 E37.45833
G0 F6000 X126.339 Y116.722
G1 F1200 X118.277 Y108.661 E37.83752
G0 F6000 X118.843 Y108.661
G1 F1200 X126.339 Y116.157 E38.1901
G0 F6000 X126.339 Y115.591
G1 F1200 X119.409 Y108.661 E38.51607
G0 F6000 X119.974 Y108.661
G1 F1200 X126.339 Y115.025 E38.81544
G0 F6000 X126.339 Y114.46
G1 F1200 X120.54 Y108.661 E39.0882
G0 F6000 X121.106 Y108.661
G1 F1200 X126.339 Y113.894 E39.33435
G0 F6000 X126.339 Y113.328
G1 F1200 X121.671 Y108.661 E39.55389
G0 F6000 X122.237 Y108.661
G1 F1200 X126.339 Y112.763 E39.74684
G0 F6000 X126.339 Y112.197
G1 F1200 X122.803 Y108.661 E39.91316
G0 F6000 X123.368 Y108.661
G1 F1200 X126.339 Y111.631 E40.05288
G0 F6000 X126.339 Y111.065
G1 F1200 X123.934 Y108.661 E40.16598
G0 F6000 X124.5 Y108.661
G1 F1200 X126.339 Y110.5 E40.25249
G0 F6000 X126.339 Y109.934
G1 F1200 X125.065 Y108.661 E40.31239
G0 F6000 X125.631 Y108.661
G1 F1200 X126.339 Y109.368 E40.34567
G0 F6000 X126.339 Y108.803
G1 F1200 X126.197 Y108.661 E40.35234
G1 F2700 E35.35234
G0 F6000 X126.197 Y108.2
G0 X108.273 Y108.273
G0 X108.288 Y119.915
G0 X110.194 Y115.375
G0 X111.812 Y114.797
G0 X112.542 Y115.298
G0 X113.917 Y117.342
G0 X114.341 Y117.169
G1 F2700 E40.35234
G1 F1200 X123.51 Y126.338 E40.78363
G0 F6000 X122.944 Y126.338
G1 F1200 X114.556 Y117.95 E41.17817
G0 F6000 X114.77 Y118.73
G1 F1200 X122.378 Y126.338 E41.53603
G0 F6000 X121.813 Y126.338
G1 F1200 X114.985 Y119.51 E41.8572
G0 F6000 X115.128 Y120.219
G1 F1200 X121.247 Y126.338 E42.14502
G0 F6000 X120.681 Y126.338
G1 F1200 X115.219 Y120.876 E42.40193
G0 F6000 X115.31 Y121.533
G1 F1200 X120.115 Y126.338 E42.62794
G0 F6000 X119.549 Y126.338
G1 F1200 X115.401 Y122.189 E42.82308
G0 F6000 X115.492 Y122.846
G1 F1200 X118.984 Y126.338 E42.98733
G0 F6000 X118.418 Y126.338
G1 F1200 X115.532 Y123.452 E43.12308
G0 F6000 X115.557 Y124.042
G1 F1200 X117.852 Y126.338 E43.23105
G0 F6000 X117.287 Y126.338
G1 F1200 X115.582 Y124.633 E43.31125
G0 F6000 X115.607 Y125.223
G1 F1200 X116.721 Y126.338 E43.36367
G0 F6000 X116.155 Y126.338
G1 F1200 X115.631 Y125.814 E43.38832
G1 F2700 E38.38832
;MESH:NONMESH
G0 F300 X115.631 Y125.814 Z0.4
G0 F6000 X115.207 Y126.641
G0 X111.114 Y114.841
G0 X110.674 Y115.003
G0 X108.314 Y108.944
G0 X108.299 Y111.314
G0 X107.914 Y107.914
G0 X107.914 Y106.835
G0 X100.481 Y100.117
;TIME_ELAPSED:79.687711
;LAYER:1
M106 S85
;TYPE:SKIRT
G1 F2700 E43.38832
G1 F1200 X101.162 Y99.524 E43.41835
G1 X101.894 Y98.994 E43.44841
G1 X102.669 Y98.531 E43.47844
G1 X103.482 Y98.138 E43.50847
G1 X104.327 Y97.818 E43.53853
G1 X105.196 Y97.575 E43.56854
G1 X106.084 Y97.409 E43.59858
G1 X107.223 Y97.313 E43.6366
G1 X107.83 Y97.3 E43.65679
G1 X126.793 Y97.3 E44.28751
G1 X127.637 Y97.311 E44.31558
G1 X128.539 Y97.364 E44.34563
G1 X129.432 Y97.496 E44.37566
G1 X130.31 Y97.707 E44.40569
G1 X131.166 Y97.995 E44.43573
G1 X131.993 Y98.357 E44.46576
G1 X132.785 Y98.792 E44.49581
G1 X133.536 Y99.294 E44.52585
