;FLAVOR:Marlin
;TIME:3056
;Filament used: 1.49886m
;Layer height: 0.2
;MINX:90.147
;MINY:79.525
;MINZ:0.2
;MAXX:144.853
;MAXY:155.493
;MAXZ:7
;TARGET_MACHINE.NAME:Creality Ender-3
;Generated with Cura_SteamEngine 5.6.0
M140 S50
M105
M190 S50
M104 S200
M105
M109 S200
M82 ;absolute extrusion mode
; Ender 3 Custom Start G-code
G92 E0 ; Reset Extruder
G28 ; Home all axes
G1 Z2.0 F3000 ; Move Z Axis up little to prevent scratching of Heat Bed
G1 X0.1 Y20 Z0.3 F5000.0 ; Move to start position
G1 X0.1 Y200.0 Z0.3 F1500.0 E15 ; Draw the first line
G1 X0.4 Y200.0 Z0.3 F5000.0 ; Move to side a little
G1 X0.4 Y20 Z0.3 F1500.0 E30 ; Draw the second line
G92 E0 ; Reset Extruder
G1 Z2.0 F3000 ; Move Z Axis up little to prevent scratching of Heat Bed
G1 X5 Y20 Z0.3 F5000.0 ; Move over to prevent blob squish
G92 E0
G92 E0
G1 F2700 E-5
;LAYER_COUNT:35
;LAYER:0
M107
G0 F6000 X97.293 Y88.439 Z0.2
;TYPE:SKIRT
G1 F2700 E0
G1 F1200 X98.149 Y87.558 E0.04086
G1 X98.905 Y86.815 E0.07611
G1 X99.62 Y86.174 E0.10805
G1 X100.438 Y85.508 E0.14313
G1 X101.472 Y84.711 E0.18656
G1 X102.29 Y84.142 E0.2197
G1 X103.361 Y83.471 E0.26173
G1 X104.269 Y82.934 E0.29682
G1 X105.159 Y82.464 E0.33029
G1 X106.258 Y81.95 E0.37065
G1 X107.231 Y81.523 E0.40599
G1 X108.16 Y81.166 E0.43909
G1 X109.411 Y80.756 E0.48288
G1 X110.395 Y80.462 E0.51703
G1 X111.332 Y80.229 E0.54915
G1 X112.604 Y79.975 E0.59229
G1 X113.636 Y79.797 E0.62712
G1 X114.611 Y79.676 E0.6598
G1 X115.819 Y79.586 E0.70009
G1 X116.905 Y79.53 E0.73626
G1 X117.896 Y79.525 E0.76922
G1 X119.165 Y79.583 E0.81147
G1 X120.224 Y79.659 E0.84678
G1 X121.196 Y79.773 E0.87933
G1 X122.141 Y79.929 E0.91119
G1 X123.471 Y80.182 E0.95622
G1 X124.446 Y80.418 E0.98958
G1 X125.633 Y80.77 E1.03076
G1 X126.635 Y81.093 E1.06578
G1 X127.572 Y81.445 E1.09907
G1 X128.743 Y81.952 E1.14151
G1 X129.682 Y82.384 E1.17589
G1 X130.538 Y82.829 E1.20798
G1 X131.651 Y83.48 E1.25086
G1 X132.544 Y84.031 E1.28576
G1 X133.37 Y84.597 E1.31907
G1 X134.383 Y85.367 E1.36139
G1 X135.19 Y86.011 E1.39573
G1 X135.935 Y86.666 E1.42872
G1 X136.615 Y87.322 E1.46015
G1 X137.562 Y88.282 E1.505
G1 X138.204 Y88.998 E1.53698
G1 X138.87 Y89.816 E1.57207
G1 X139.667 Y90.85 E1.61549
G1 X140.236 Y91.668 E1.64863
G1 X140.907 Y92.739 E1.69067
G1 X141.443 Y93.647 E1.72574
G1 X141.913 Y94.535 E1.75915
G1 X142.424 Y95.627 E1.79925
G1 X142.853 Y96.604 E1.83474
G1 X143.211 Y97.535 E1.86792
G1 X143.622 Y98.789 E1.91181
G1 X143.916 Y99.773 E1.94597
G1 X144.149 Y100.71 E1.97808
G1 X144.402 Y101.978 E2.02109
G1 X144.58 Y103.007 E2.05582
G1 X144.703 Y103.987 E2.08867
G1 X144.775 Y104.922 E2.11986
G1 X144.848 Y106.28 E2.16509
G1 X144.853 Y107.271 E2.19805
G1 X144.795 Y108.543 E2.2404
G1 X144.719 Y109.602 E2.27572
G1 X144.604 Y110.576 E2.30834
G1 X144.401 Y111.789 E2.34924
G1 X144.198 Y112.842 E2.38491
G1 X143.961 Y113.819 E2.41835
G1 X143.687 Y114.755 E2.45079
G1 X143.268 Y116.067 E2.49659
G1 X143.053 Y116.668 E2.51782
G1 X141.979 Y119.517 E2.61909
G1 X141.162 Y121.903 E2.70297
G1 X140.408 Y124.322 E2.78725
G1 X139.735 Y126.721 E2.87012
G1 X138.944 Y129.907 E2.9793
G1 X138.589 Y131.291 E3.02683
G1 X138.326 Y132.155 E3.05686
G1 X137.907 Y133.185 E3.09385
G1 X137.391 Y134.288 E3.13435
G1 X136.955 Y135.121 E3.16562
G1 X135.712 Y137.262 E3.24796
G1 X134.517 Y139.459 E3.33114
G1 X133.354 Y141.745 E3.41645
G1 X132.29 Y143.993 E3.49917
G1 X131.056 Y146.816 E3.60164
G1 X130.643 Y147.655 E3.63275
G1 X130.267 Y148.29 E3.65729
G1 X129.879 Y148.897 E3.68125
G1 X129.318 Y149.692 E3.71362
G1 X128.725 Y150.395 E3.74421
G1 X128.27 Y150.889 E3.76654
G1 X127.584 Y151.568 E3.79865
G1 X127.02 Y152.047 E3.82326
G1 X126.47 Y152.481 E3.84656
G1 X125.71 Y153.028 E3.8777
G1 X125 Y153.457 E3.90529
G1 X124.391 Y153.793 E3.92843
G1 X123.521 Y154.223 E3.96071
G1 X122.75 Y154.527 E3.98827
G1 X122.083 Y154.762 E4.01179
G1 X121.149 Y155.043 E4.04423
G1 X120.217 Y155.235 E4.07588
G1 X119.453 Y155.357 E4.10161
G1 X118.485 Y155.468 E4.13402
G1 X117.549 Y155.493 E4.16516
G1 X116.91 Y155.481 E4.18642
G1 X115.979 Y155.423 E4.21745
G1 X115.31 Y155.332 E4.2399
G1 X114.594 Y155.212 E4.26405
G1 X113.641 Y155.005 E4.29648
G1 X112.719 Y154.718 E4.3286
G1 X112.054 Y154.478 E4.35212
G1 X111.19 Y154.122 E4.3832
G1 X110.471 Y153.757 E4.41002
G1 X109.912 Y153.446 E4.43129
G1 X109.142 Y152.972 E4.46137
G1 X108.558 Y152.55 E4.48533
G1 X108.036 Y152.146 E4.50728
G1 X107.347 Y151.562 E4.53732
G1 X106.786 Y151.008 E4.56355
G1 X106.325 Y150.518 E4.58593
G1 X105.695 Y149.782 E4.61815
G1 X105.203 Y149.102 E4.64606
G1 X104.757 Y148.431 E4.67286
G1 X104.255 Y147.593 E4.70535
G1 X103.804 Y146.656 E4.73994
G1 X103.546 Y146.047 E4.76194
G1 X102.495 Y143.657 E4.84878
G1 X101.428 Y141.407 E4.9316
G1 X100.26 Y139.11 E5.01731
G1 X99.091 Y136.961 E5.09867
G1 X98.744 Y136.371 E5.12144
G1 X97.996 Y135.052 E5.17187
G1 X97.591 Y134.26 E5.20146
G1 X97.019 Y133.018 E5.24694
G1 X96.651 Y132.109 E5.27956
G1 X96.327 Y131.024 E5.31722
G1 X95.878 Y129.164 E5.38086
G1 X95.222 Y126.562 E5.47011
G1 X94.534 Y124.127 E5.55427
G1 X93.786 Y121.742 E5.6374
G1 X92.977 Y119.395 E5.71997
G1 X91.982 Y116.773 E5.81325
G1 X91.828 Y116.342 E5.82847
G1 X91.463 Y115.237 E5.86718
G1 X91.086 Y113.99 E5.91051
G1 X90.851 Y113.046 E5.94286
G1 X90.597 Y111.774 E5.986
G1 X90.419 Y110.742 E6.02084
G1 X90.298 Y109.767 E6.05351
G1 X90.208 Y108.56 E6.09377
G1 X90.152 Y107.476 E6.12987
G1 X90.147 Y106.485 E6.16283
G1 X90.205 Y105.213 E6.20518
G1 X90.281 Y104.154 E6.2405
G1 X90.396 Y103.18 E6.27312
G1 X90.599 Y101.967 E6.31402
G1 X90.802 Y100.914 E6.34969
G1 X91.039 Y99.937 E6.38313
G1 X91.313 Y99.003 E6.4155
G1 X91.712 Y97.75 E6.45924
G1 X92.064 Y96.808 E6.49269
G1 X92.462 Y95.882 E6.52621
G1 X93.006 Y94.696 E6.56961
G1 X93.451 Y93.84 E6.6017
G1 X94.102 Y92.727 E6.64458
G1 X94.653 Y91.834 E6.67948
G1 X95.219 Y91.008 E6.71279
G1 X95.99 Y89.994 E6.75515
G1 X96.635 Y89.188 E6.78949
G1 X97.293 Y88.439 E6.82265
G0 F6000 X97.58 Y88.718
G1 F1200 X98.43 Y87.843 E6.86322
G1 X99.172 Y87.113 E6.89784
G1 X99.887 Y86.472 E6.92978
G1 X100.682 Y85.825 E6.96387
G1 X101.716 Y85.028 E7.00729
G1 X102.502 Y84.481 E7.03914
G1 X103.565 Y83.815 E7.08087
G1 X104.456 Y83.288 E7.1153
G1 X105.329 Y82.826 E7.14815
G1 X106.419 Y82.316 E7.18817
G1 X107.375 Y81.896 E7.2229
G1 X108.285 Y81.546 E7.25533
G1 X109.526 Y81.139 E7.29877
G1 X110.492 Y80.85 E7.33231
G1 X111.41 Y80.621 E7.36377
G1 X112.672 Y80.369 E7.40658
G1 X113.685 Y80.194 E7.44077
G1 X114.641 Y80.075 E7.47281
G1 X115.84 Y79.985 E7.5128
G1 X116.907 Y79.93 E7.54834
G1 X117.878 Y79.925 E7.58063
G1 X119.137 Y79.982 E7.62255
G1 X120.177 Y80.056 E7.65723
G1 X121.131 Y80.168 E7.68918
G1 X122.066 Y80.322 E7.72069
G1 X123.377 Y80.571 E7.76508
G1 X124.332 Y80.802 E7.79776
G1 X125.511 Y81.151 E7.83865
G1 X126.494 Y81.467 E7.873
G1 X127.413 Y81.812 E7.90564
G1 X128.576 Y82.315 E7.94779
G1 X129.497 Y82.739 E7.98151
G1 X130.353 Y83.184 E8.0136
G1 X131.441 Y83.82 E8.05552
G1 X132.318 Y84.361 E8.08979
G1 X133.128 Y84.915 E8.12243
G1 X134.134 Y85.68 E8.16446
G1 X134.926 Y86.312 E8.19816
G1 X135.657 Y86.954 E8.23052
G1 X136.33 Y87.603 E8.26162
G1 X137.264 Y88.549 E8.30583
G1 X137.906 Y89.265 E8.33782
G1 X138.553 Y90.06 E8.37191
G1 X139.35 Y91.094 E8.41533
G1 X139.897 Y91.88 E8.44718
G1 X140.563 Y92.943 E8.48891
G1 X141.09 Y93.834 E8.52334
G1 X141.551 Y94.704 E8.55608
G1 X142.058 Y95.788 E8.59589
G1 X142.48 Y96.748 E8.63076
G1 X142.831 Y97.66 E8.66327
G1 X143.239 Y98.904 E8.70681
G1 X143.528 Y99.87 E8.74035
G1 X143.757 Y100.788 E8.77182
G1 X144.008 Y102.046 E8.81448
G1 X144.183 Y103.057 E8.84861
G1 X144.304 Y104.018 E8.88082
G1 X144.376 Y104.943 E8.91168
G1 X144.448 Y106.282 E8.95628
G1 X144.453 Y107.253 E8.98858
G1 X144.396 Y108.515 E9.03059
G1 X144.322 Y109.555 E9.06527
G1 X144.21 Y110.51 E9.09725
G1 X144.008 Y111.713 E9.13783
G1 X143.809 Y112.748 E9.17288
G1 X143.577 Y113.707 E9.2057
G1 X143.306 Y114.633 E9.23779
G1 X142.891 Y115.933 E9.28318
G1 X142.679 Y116.527 E9.30415
G1 X141.605 Y119.376 E9.40542
G1 X140.78 Y121.784 E9.49008
G1 X140.026 Y124.203 E9.57435
G1 X139.35 Y126.613 E9.65761
G1 X138.556 Y129.808 E9.7671
G1 X138.206 Y131.175 E9.81404
G1 X137.943 Y132.039 E9.84408
G1 X137.545 Y133.015 E9.87913
G1 X137.036 Y134.103 E9.91908
G1 X136.609 Y134.92 E9.94975
G1 X135.366 Y137.061 E10.03209
G1 X134.16 Y139.278 E10.11603
G1 X132.997 Y141.564 E10.20133
G1 X131.929 Y143.822 E10.28441
G1 X130.697 Y146.639 E10.38668
G1 X130.284 Y147.478 E10.41778
G1 X129.93 Y148.075 E10.44086
G1 X129.552 Y148.667 E10.46422
G1 X129.012 Y149.434 E10.49542
G1 X128.431 Y150.124 E10.52543
G1 X127.988 Y150.605 E10.54717
G1 X127.325 Y151.263 E10.57824
G1 X126.772 Y151.733 E10.60238
G1 X126.236 Y152.156 E10.62509
G1 X125.476 Y152.703 E10.65624
G1 X124.807 Y153.107 E10.68223
G1 X124.213 Y153.435 E10.7048
G1 X123.374 Y153.851 E10.73594
G1 X122.617 Y154.15 E10.76302
G1 X121.967 Y154.379 E10.78594
G1 X121.068 Y154.651 E10.81718
G1 X120.154 Y154.84 E10.84822
G1 X119.407 Y154.96 E10.87338
G1 X118.474 Y155.068 E10.90462
G1 X117.556 Y155.093 E10.93517
G1 X116.935 Y155.082 E10.95582
G1 X116.004 Y155.024 E10.98685
G1 X115.376 Y154.938 E11.00793
G1 X114.678 Y154.821 E11.03147
G1 X113.76 Y154.623 E11.06271
G1 X112.855 Y154.342 E11.09422
G1 X112.206 Y154.108 E11.11717
G1 X111.371 Y153.765 E11.14719
G1 X110.665 Y153.407 E11.17352
G1 X110.122 Y153.105 E11.19419
G1 X109.352 Y152.631 E11.22426
G1 X108.803 Y152.234 E11.2468
G1 X108.295 Y151.841 E11.26816
G1 X107.606 Y151.257 E11.2982
G1 X107.077 Y150.734 E11.32294
G1 X106.629 Y150.258 E11.34468
G1 X106.019 Y149.547 E11.37584
G1 X105.536 Y148.881 E11.4032
G1 X105.1 Y148.225 E11.4294
G1 X104.615 Y147.419 E11.46069
G1 X104.172 Y146.5 E11.49462
G1 X103.914 Y145.891 E11.51662
G1 X102.861 Y143.496 E11.60364
G1 X101.785 Y141.226 E11.68719
G1 X100.617 Y138.929 E11.7729
G1 X99.436 Y136.758 E11.8551
G1 X99.092 Y136.173 E11.87767
G1 X98.352 Y134.87 E11.92751
G1 X97.954 Y134.093 E11.95654
G1 X97.389 Y132.867 E12.00144
G1 X97.034 Y131.995 E12.03276
G1 X96.716 Y130.93 E12.06972
G1 X96.267 Y129.07 E12.13337
G1 X95.61 Y126.464 E12.22275
G1 X94.919 Y124.018 E12.30729
G1 X94.167 Y121.622 E12.39082
G1 X93.351 Y119.253 E12.47415
G1 X92.359 Y116.639 E12.56714
G1 X92.208 Y116.216 E12.58208
G1 X91.846 Y115.121 E12.62044
G1 X91.474 Y113.893 E12.66312
G1 X91.243 Y112.968 E12.69483
G1 X90.991 Y111.706 E12.73763
G1 X90.816 Y110.693 E12.77182
G1 X90.697 Y109.737 E12.80386
G1 X90.607 Y108.539 E12.84382
G1 X90.552 Y107.474 E12.87929
G1 X90.547 Y106.503 E12.91159
G1 X90.604 Y105.241 E12.9536
G1 X90.678 Y104.201 E12.98828
G1 X90.79 Y103.246 E13.02026
G1 X90.992 Y102.043 E13.06084
G1 X91.191 Y101.008 E13.09589
G1 X91.423 Y100.049 E13.12871
G1 X91.694 Y99.124 E13.16077
G1 X92.087 Y97.89 E13.20384
G1 X92.432 Y96.966 E13.23665
G1 X92.826 Y96.049 E13.26984
G1 X93.361 Y94.881 E13.31257
G1 X93.806 Y94.025 E13.34466
G1 X94.442 Y92.937 E13.38657
G1 X94.983 Y92.06 E13.42085
G1 X95.537 Y91.25 E13.45349
G1 X96.302 Y90.244 E13.49552
G1 X96.935 Y89.452 E13.52924
G1 X97.58 Y88.718 E13.56174
G0 F6000 X97.867 Y88.997
G1 F1200 X98.71 Y88.128 E13.60201
G1 X99.439 Y87.411 E13.63602
G1 X100.154 Y86.77 E13.66796
G1 X100.926 Y86.142 E13.70106
G1 X101.945 Y85.356 E13.74386
G1 X102.714 Y84.82 E13.77504
G1 X103.769 Y84.159 E13.81645
G1 X104.643 Y83.641 E13.85024
G1 X105.498 Y83.188 E13.88242
G1 X106.58 Y82.682 E13.92215
G1 X107.519 Y82.269 E13.95627
G1 X108.41 Y81.926 E13.98802
G1 X109.641 Y81.522 E14.03111
G1 X110.589 Y81.238 E14.06403
G1 X111.488 Y81.013 E14.09485
G1 X112.74 Y80.763 E14.13731
G1 X113.735 Y80.591 E14.1709
G1 X114.671 Y80.474 E14.20227
G1 X115.861 Y80.384 E14.24197
G1 X116.909 Y80.33 E14.27687
G1 X117.86 Y80.325 E14.3085
G1 X119.109 Y80.381 E14.35008
G1 X120.13 Y80.453 E14.38413
G1 X121.066 Y80.563 E14.41547
G1 X121.991 Y80.715 E14.44665
G1 X123.283 Y80.96 E14.49039
G1 X124.219 Y81.186 E14.52241
G1 X125.389 Y81.532 E14.56299
G1 X126.354 Y81.842 E14.59671
G1 X127.254 Y82.179 E14.62867
G1 X128.409 Y82.678 E14.67052
G1 X129.312 Y83.094 E14.70358
G1 X130.168 Y83.539 E14.73567
G1 X131.231 Y84.16 E14.77662
G1 X132.092 Y84.691 E14.81026
G1 X132.886 Y85.234 E14.84226
G1 X133.885 Y85.993 E14.88399
G1 X134.662 Y86.613 E14.91705
G1 X135.379 Y87.242 E14.94877
G1 X136.045 Y87.884 E14.97954
G1 X136.966 Y88.816 E15.02312
G1 X137.608 Y89.532 E15.05511
G1 X138.236 Y90.304 E15.08821
G1 X139.022 Y91.323 E15.13101
G1 X139.558 Y92.092 E15.16219
G1 X140.219 Y93.147 E15.20359
G1 X140.737 Y94.021 E15.23738
G1 X141.189 Y94.874 E15.26949
G1 X141.692 Y95.949 E15.30897
G1 X142.107 Y96.892 E15.34323
G1 X142.451 Y97.785 E15.37506
G1 X142.856 Y99.019 E15.41826
G1 X143.14 Y99.967 E15.45118
G1 X143.365 Y100.866 E15.482
G1 X143.614 Y102.114 E15.52433
G1 X143.786 Y103.107 E15.55784
G1 X143.905 Y104.049 E15.58942
G1 X143.977 Y104.965 E15.61998
G1 X144.048 Y106.284 E15.66392
G1 X144.053 Y107.235 E15.69555
G1 X143.997 Y108.487 E15.73723
G1 X143.925 Y109.508 E15.77128
G1 X143.815 Y110.444 E15.80262
G1 X143.615 Y111.638 E15.84289
G1 X143.42 Y112.654 E15.8773
G1 X143.193 Y113.595 E15.90949
G1 X142.925 Y114.511 E15.94124
G1 X142.514 Y115.799 E15.9862
G1 X142.305 Y116.386 E16.00693
G1 X141.231 Y119.235 E16.10819
G1 X140.398 Y121.665 E16.19363
G1 X139.644 Y124.084 E16.27791
G1 X138.965 Y126.505 E16.36154
G1 X138.169 Y129.709 E16.47134
G1 X137.823 Y131.059 E16.51769
G1 X137.56 Y131.923 E16.54773
G1 X137.183 Y132.846 E16.58089
G1 X136.682 Y133.918 E16.62025
G1 X136.263 Y134.719 E16.65032
G1 X135.02 Y136.86 E16.73266
G1 X133.803 Y139.097 E16.81736
G1 X132.64 Y141.383 E16.90267
G1 X131.568 Y143.651 E16.9861
G1 X130.338 Y146.463 E17.08818
G1 X129.94 Y147.274 E17.11823
G1 X129.593 Y147.86 E17.14088
G1 X129.225 Y148.437 E17.16365
G1 X128.706 Y149.176 E17.19368
G1 X128.136 Y149.853 E17.22312
G1 X127.706 Y150.321 E17.24425
G1 X127.066 Y150.958 E17.27429
G1 X126.524 Y151.419 E17.29795
G1 X126.002 Y151.832 E17.32009
G1 X125.269 Y152.361 E17.35016
G1 X124.613 Y152.757 E17.37564
G1 X124.035 Y153.077 E17.39762
G1 X123.227 Y153.479 E17.42763
G1 X122.484 Y153.773 E17.45421
G1 X121.851 Y153.996 E17.47653
G1 X120.987 Y154.259 E17.50657
G1 X120.09 Y154.445 E17.53704
G1 X119.36 Y154.563 E17.56163
G1 X118.463 Y154.668 E17.59167
G1 X117.563 Y154.693 E17.62162
G1 X116.959 Y154.683 E17.64171
G1 X116.058 Y154.628 E17.67173
G1 X115.442 Y154.544 E17.69241
G1 X114.762 Y154.43 E17.71534
G1 X113.878 Y154.241 E17.74541
G1 X112.991 Y153.966 E17.7763
G1 X112.358 Y153.738 E17.79868
G1 X111.523 Y153.395 E17.8287
G1 X110.859 Y153.057 E17.85348
G1 X110.332 Y152.764 E17.87354
G1 X109.562 Y152.29 E17.90361
G1 X109.048 Y151.918 E17.92471
G1 X108.554 Y151.536 E17.94548
G1 X107.865 Y150.952 E17.97552
G1 X107.368 Y150.46 E17.99878
G1 X106.932 Y149.997 E18.01994
G1 X106.343 Y149.312 E18.04998
G1 X105.869 Y148.659 E18.07682
G1 X105.442 Y148.018 E18.10244
G1 X104.975 Y147.245 E18.13248
G1 X104.54 Y146.344 E18.16575
G1 X104.282 Y145.735 E18.18775
G1 X103.227 Y143.335 E18.27495
G1 X102.142 Y141.045 E18.35923
G1 X100.974 Y138.748 E18.44494
G1 X99.787 Y136.567 E18.52753
G1 X99.44 Y135.975 E18.55035
G1 X98.708 Y134.687 E18.59962
G1 X98.317 Y133.925 E18.62811
G1 X97.759 Y132.716 E18.6724
G1 X97.417 Y131.88 E18.70244
G1 X97.105 Y130.836 E18.73868
G1 X96.656 Y128.976 E18.80232
G1 X95.998 Y126.366 E18.89185
G1 X95.304 Y123.909 E18.97676
G1 X94.549 Y121.502 E19.06067
G1 X93.725 Y119.111 E19.14478
G1 X92.736 Y116.505 E19.23749
G1 X92.588 Y116.09 E19.25214
G1 X92.229 Y115.005 E19.29016
G1 X91.862 Y113.796 E19.33218
G1 X91.635 Y112.89 E19.36324
G1 X91.385 Y111.638 E19.40571
G1 X91.213 Y110.643 E19.43929
G1 X91.096 Y109.707 E19.47067
G1 X91.006 Y108.518 E19.51033
G1 X90.952 Y107.472 E19.54516
G1 X90.947 Y106.521 E19.57679
G1 X91.003 Y105.269 E19.61848
G1 X91.075 Y104.248 E19.65252
G1 X91.185 Y103.312 E19.68386
G1 X91.385 Y102.118 E19.72413
G1 X91.58 Y101.102 E19.75854
G1 X91.807 Y100.161 E19.79074
G1 X92.075 Y99.245 E19.82248
G1 X92.462 Y98.03 E19.86489
G1 X92.8 Y97.124 E19.89705
G1 X93.19 Y96.215 E19.92995
G1 X93.716 Y95.066 E19.97198
G1 X94.161 Y94.21 E20.00407
G1 X94.782 Y93.147 E20.04502
G1 X95.313 Y92.286 E20.07866
G1 X95.856 Y91.492 E20.11065
